src/pos-icons/nail.svg

<svg height="24" viewBox="0 0 24 24" width="24" xmlns="http://www.w3.org/2000/svg"><path d="m13.5 5v11l-1.5 6-1.5-6v-11zm3.5-3h-10v2h10z"/></svg>

<?xml version="1.0" encoding="UTF-8"?><!DOCTYPE svg PUBLIC "-//W3C//DTD SVG 1.1//EN" "http://www.w3.org/Graphics/SVG/1.1/DTD/svg11.dtd"><svg xmlns="http://www.w3.org/2000/svg" xmlns:xlink="http://www.w3.org/1999/xlink" version="1.1" id="mdi-nail" width="24" height="24" viewBox="0 0 24 24"><path d="M13.5,5V16L12,22L10.5,16V5H13.5M17,2H7V4H17V2Z" /></svg>
